X:1
T:Missa sobre las voces
T:Cristóbal de Morales [c.1500-1553]
T:Missa sobre las voces
C:Cristóbal de Morales [c.1500-1553]
%%score [ 1 2 3 4 ]
L:1/8
M:4/4
K:C
V:1 treble nm="Soprano" snm="S."
V:2 treble nm="Alto" snm="A."
V:3 treble-8 transpose=-12 nm="Tenor" snm="T."
V:4 bass nm="Bass" snm="B."
V:1
"^Kyrie eleison" z8 | z4 G4 | A2 B2 c2 d2 | e4 d2 c2- | c2 B2 c4 | z2 G2 A2 G2 | FGABcd e2 | %7
w: |Ky-|ri- e _ _|_ e- *|* lei- son.|Ky- ri- e|e- * * * * * *|
 f2 d2 e4- | e2 d2 c2 B2- | BA A4 G2 | A8 || z8 | z8 | G4 A3 B | cd e2 d2 f2- | f2 ed c4 | %16
w: lei- son. Ky-|* i- e e-|* * lei- *|son.|||Chris- te _|_ _ _ e- lei-|* * * son,|
 B2 G2 A3 B | cd e2 c2 d2 | e4 z2 g2 | e2 g2 f2 d2 | e6 e2 | d2 c4 B2 | A8 || G2 AB cd e2 | %24
w: Chris- * te _|_ _ e- * lei-|son, Chris-|te _ e- lei-|son, e-|* lei- *|son.|Ky- ri- e e- * lei-|
 d2 c4 B2 | c2 g3 f e2 | d2 d4 c2 | d2 e2 f2 d2- | dc c2 B2 A2- | A2 G2 A4 | G2 c4 B2 | %31
w: |son, Ky- ri- e|e- * *|* * * lei-|||son, Ky- ri-|
 cdef g2 e2 | d2 c4 B2 | A4 G2 B2- | BA A4 G2 | A8 ||"^Gloria" z4 G3 A | B2 c2 d2 e2 | %38
w: e _ _ _ _ e-|||* * * lei-|son.|Et in|ter- ra pax ho-|
 c2 d2 e2 g2 | f2 e2 d2 c2- | cB B2 A4 | z2 c2 A2 G2 | c4 z2 c2 | c2 c2 A2 G2 | c4 z4 | z2 c4 c2 | %46
w: mi- ni- bus bo-|nae vo- lun- ta-|* * * tis,|lau- da- mus|te, be-|ne- di- ci- mus|te,|a- do-|
 A2 G2 c2 G2 | A2 B2 cd e2- | ed d4 cB | c2 e3 e e2 | d2 B2 c2 d2 | e4 z4 | z2 e2 ffff | ed c2 d4 | %54
w: ra- mus te, glo-|ri- fi ca- * *|* * * mus _|te, gra- ti- as|a- gi- mus ti-|bi,|do- mi- ne De- us,|rex cae- les- tis,|
 z8 | z2 e2 f2 d2 | e2 g2 f2 e2- | ed d2 e4- | e4 z4 | z2 f4 e2 | d6 cB | c2 e2 e2 d2 | c4 c4 | %63
w: |De- us pa-|ter om- ni- *|* * po- tens,|_|Je- su-|Chris- * *|te, do- mi- ne|De- us,|
 z4 z2 e2 | e2 f3 e c2 | d2 cB cdec | f2 d3 c e2- | e2 d2 c4 | B4 A2 c2 | c2 c2 A4 | A8 || %71
w: a-|gnus De- i fi-|li- us pa- * * * *|tris, a- * gnus|_ De- *|* i, fi-|li- us pa-|tris.|
 A4 A2 B2- | B2 A2 B2 c2 | d2 cB c2 e2 | f2 e4 dc | d2 d2 e4 | z2 A2 A2 A2 | e4 f3 e | dc d4 c2 | %79
w: Qui tol- lis|_ pec- ca- ta|mun- * * di, mi-|se- re- re _|_ no- bis,|qui tol- lis|pec- ca- ta|_ _ _ mun-|
 B4 z4 | d6 d2 | c4 f4- | f4 f4 | e4 z4 | z4 z2 G2 | A3 B c2 d2 | e2 f3 edc | d4 e4 | z4 z2 G2 | %89
w: di,|sus- ci-|pe, sus-|* ci-|pe,|qui|se- des ad- dex-|te- ram _ _ _|pa- tris,|quo-|
 A2 c4 G2 | c2 d2 c3 B | cd e4 dc | B2 e2 d2 c2 | c2 B2 A2 c2- | c2 B2 A2 B2- | B2 A2 c2 d2 | e8 | %97
w: ni- am tu|so- lus sanc- *||tus, tu so- lus|do- mi- nus, tu|_ so- lus al-|* ti- ssi- *|mus,|
 z4 c4- | c2 c2 B4 | A8 | z4 z2 e2 | f2 c2 d2 f2 | edcB A2 c2 | B4 z2 f2 | f2 f2 edcB | %105
w: Je-|* su Chris-|te,|cum-|sanc- to spi- *|ri- * * * * *|tu in|glo- ri- a _ _ De-|
 A2 d2 c2 B2- | BA A4 G2 | A8 ||"^Credo" G4 G2 A2 | B2 c2 d4 | e2 g4 f2 | e2 d4 cB | c2 c2 c2 c2 | %113
w: i pa- tris, A-||men.|Pa- trem om-|ni- po- ten-|* tem, fac-|to- * * *|rem cae- li et|
 d2 cB c2 c2 | A4 z2 G2 | A2 c3 B G2 | B2 ABcd e2- | ed d2 c4- | c2 B2 A2 GF | GA B3 A A2- | %120
w: ter- * * * *|rae, vi-|si- bi- li- um|om- ni- * * * *|* * um et|_ in- vi- si- *||
 A2 G2 A2 F2 | E4 z2 e2- | e2 d4 cB | c2 c2 d2 d2 | e2 f4 e2 | d2 c2 A2 c2- | cd e2 B2 e2- | %127
w: * * bi- li-|um, et|_ in u- *|* num do- mi-|num Je- sum|Chris- tum fi- li-|* um De- i u-|
 ed d2 c2 d2- | d2 cB c4 | z2 A4 A2 | B2 c2 d3 c | d2 e2 A2 d2- | d2 cB c2 B2 | A4 G2 AB | %134
w: * ni- ge- * *|* * ni- tum|et ex|pa- tre na- tum|an- te om- ni-|* * * a sae-|cu- la sae- *|
 cd e4 d2 | e8 | z4 z2 g2 | g2 g2 fe dc | B2 c2 G4 | z8 | z8 | z2 d2 d2 d2 | cB AGFE F2 | %143
w: * * * cu-|la,|lu-|men de lu- * mi- *|* * ne,|||ge- ni- tum|non _ fac- * * * *|
 E2 c2 c2 c2 | BA GF E2 A2- | A2 GF G2 g2- | g2 f2 e2 d2 | c2 f2 fe c2 | d2 B2 c4 | z4 z2 A2 | %150
w: tum, con- sub- stan-|ti- * a- * lem pa-|* * * tri, per|_ quem om- ni-|a fac- * * *|* ta sunt,|et|
 A2 B2 c4- | c2 A2 B2 d2 | c2 d2 e2 dc | B2 g2 f2 e2 | d2 c4 B2 | c2 e4 d2 | c2 B2 A4 | G8 || G8 | %159
w: prop- ter nos-|* tram sa- lu-|tem _ _ _ _|_ des- cen- dit|de cae- *|lis, des- cen-|dit de cae-|lis.|Et|
 A4 B4 | c4 d4 | e8 | z4 A4 | B8 | c4 d4- | d4 e4 | f4 F4- | F4 G4 | A4 B4 | c4 d4 | e4 z4 | %171
w: in- car-|na- tus|est|de|spi-|ri- tu|_ sanc-|to, ex|_ Ma-|ri- a|vir- gi-|ne,|
 A6 B2 | c4 z4 | e8 | f8 | e8 | c4 c4- | c2 BA B4 | A12 || A4 A2 c2- | c2 G2 c2 d2 | e4 f2 ed | %182
w: vir- gi-|ne,|et|_|ho-|mo fac-|* tus _ _|est.|Cru- ci- fix-|* us e- ti-|am pro _ _|
 e6 d2 | e2 dc B4 | z2 c2 d2 e2 | A2 d4 c2 | d2 c2 B4 | A4 z4 | z8 | z2 e4 d2 | e2 c2 d2 e2 | A8 | %192
w: _ no-|* * * bis|sub Pon- ti-|o Pi- *|la- * *|to||pa- ssus|est se- pul- tus|est,|
 z8 | z8 | z2 A4 G2 | c2 d2 e4 | f6 e2 | d2 cd ef g2- | g2 fe f2 e2 | z2 A4 G2 | c2 d2 edcB | %201
w: ||et as-|cen- dit in|cae- *|lum, et as- cen- dit in|_ cae- * * lum,|se- det|ad dex- te- * ram pa-|
 A2 d2 c2 A2 | z2 e3 d B2 | ^c8 || z8 | z8 | z8 | z8 | e4 d2 e2 | A2 e2 e2 f2 | e2 c3 d e2 | %211
w: * * * tris,|pa- * *|tris.|||||Ju- di- ca-|re vi- vos et|mor- tu- os, _|
 A2 ABcd e2- | e2 d2 c4 | z4 z2 c2 | c2 G2 ABcd | e4 B3 c | d2 d2 d2 d2 | e4 d2 c2 | B2 c2 c4- | %219
w: cu- ius _ _ _ reg-|* * ni|non|e- rit fi- * * *|nis, et in-|* spi- ri- tum|sanc- tum do-|* mi- num,|
 c4 z4 | z2 e2 e2 e2 | d2 c4 B2 | c2 c2 A2 G2 | c4 z2 c2 | c2 c2 A2 G2 | c6 BA | G4 z4 | z4 z2 A2 | %228
w: _|et vi- vi-|fi- can- tem,|_ qui ex pa-|tre fi-|li o- que pro-|ce- * *|dit,|qui|
 A2 B2 c2 A2 | c2 d2 e4 | z4 z2 f2 | f2 e2 c2 f2- | f2 e2 d4- | d2 cB c2 A2- | A2 A2 A2 A2 | %235
w: cum pa- tre et|fi- li- o|et|con- glo- ri fi-|* * ca-|* * * tur, qui|_ lo- cu- tus|
 A4 z4 | z2 A2 e2 e2 | f6 d2 | f2 e4 dc | BA d2 c2 B2 | A8 | z8 | z4 z2 e2 | eeee dcBA | G8 | %245
w: est,|et u- nam|sanc- tam|ca- tho- li- *||cam||et|a- pos- to- li- cam e- ccle- si-|am,|
 A2 c2 A2 c2- | cd e2 c2 e2- | ed d4 cB | c4 A2 c2 | A2 c3 d e2 | A4 z4 | A2 c2 A2 c2- | %252
w: con- fi- te or|_ u- num bap- *|* tis- * * *|ma, in re-|mi- ssi- * o-|nem|pe- cca- to- rum,|
 cdef g2 fe | dc c4 B2 | A8 | B4 G2 A2 | B2 c2 d2 e2 | c2 f2 e3 d | c2 B3 A A2- | A2 GF G4 | %260
w: _ _ _ _ pe- * *|* * ca- to-||rum. Et ex-|pec- to re- su-|rrec- ti- o- *|nem mor- tu- o-|* * * rum.|
 z4 c4- | c4 B4 | A4 G4 | F4 E4 | G6 G2 | A2 c2 B2 A2- | A2 ^G^F G4 | A8 ||"^Sanctus" z8 | z4 G4- | %270
w: Et|_ vi-|tam ven-|tu- ri|sae- cu-|li A- * *||men.||Sanc-|
 G2 A2 B2 c2- | c2 d2 e3 d | B2 c2 A2 c2- | c2 B4 AG | A2 G2 z2 G2 | ABcd ef e2- | ed d4 c2 | %277
w: ||tus, Sanc- * *||* tus, do-|mi- * * * nus _ De-|* * * us,|
 f2 e2 d2 cB | cd e4 d2 | e4 z4 | z2 G2 ABcd | ef ge f4 | e4 z4 | z2 G2 ABcd | ef ge f2 e2- | %285
w: sa- ba- o- * *||oth,|do- mi- * * *|* * nus _ De-|us,|do- mi- * * *|* * nus _ De- *|
 e2 dc d4 | e8 | z8 | z8 | z2 g2 g2 g2 | fe dc B2 e2- | edcB A2 c2 | B4 z2 c2 | c2 c2 BAGF | %294
w: |us,|||ple- ni- sunt|cae- * li _ et ter-||ra, glo-|ri- a tu- * * *|
 E2 A4 ^G2 | A8 || z8 | z8 | z2 e2 e2 e2 | fe dc BA d2- | d2 cB c2 B2 | A8 | z2 e2 e2 d2 | %303
w: |a|||Ho- san- na|in _ ex- * cel- * *||sis,|Ho- san- na|
 c2 f4 e2- | e2 d4 cB | c4 z4 | z2 A2 A2 G2 | c3 B A2 B2 | A8 | z2 e2 e2 d2 | c2 f4 e2 | %311
w: in ex cel-||sis,|Ho- san- na|in ex- cel- *|sis,|Ho- san- na|in ex- cel-|
 d4 c2 d2- | d2 cB c4 ||"^Benedictus (Bassus tacet)" z8 | z8 | G4 G2 A2 | B2 c2 d4 | e2 g4 f2 | %318
w: |* * * sis.|||Be- ne- dic-|tus qui ve-|nit, qui _|
 e2 d4 cB | c2 e2 e2 e2 | A2 e4 d2 | c2 BA B2 e2 | e2 d2 f2 e2- | e2 dc B2 AB | cd e4 d2 | %325
w: ve- * * *|nit in no- mi-|ne do- *|* mi- * ni, qui|ve- nit in no-|* mi- * ne do- *|mi- * ni, in|
 e3 d c2 B2 | A2 GF G4 | z2 A2 A2 G2 | A2 c4 B2 | cBAG A4 | z2 d2 d2 c2 | d2 f4 e2 | fedc d4- | %333
w: no- mi- ne do-|* mi- * ni,|in no- mi-|ne do- mi-|* * * * ni,|in no- mi-|ne do- mi-||
 d2 cB c4 ||"^Agnus Dei" G6 A2 | B2 c3 d e2- | ec f2 e2 dc | B4 c3 B | A2 GF E4 | z8 | %340
w: * * * ni.|Ag- nus|De- * * *||i. Ag- nus|De- * * i,||
 z2 d2 d2 d2 | c2 e2 d2 B2 | A2 GF E2 A2 | G2 A3 G G2 | A2 f2 f2 f2 | e2 d2 f4 | e2 dc d4- | %347
w: qui to- llis|pe- cca- ta mun-|* * * di, pe-|cca- ta _ mun-|di, qui to- llis|pe- cca- ta|mun- * * di,|
 d4 z4 | z4 z2 G2 | AB cd e2 d2 | c2 c3 B B2 | c4 z4 | z4 z2 G2 | AB cd e2 d2- | d2 c2 B4 | %355
w: _|pe-|cca- * * * * ta|_ mun- * *|di,|mi-|se- * re- * re no-|* * bis,|
 A4 G2 B2- | BA A4 G2 | A8 |] %358
w: mi- se re-|* * re no-|bis.|
V:2
 z8 | z8 | z8 | z8 | z4 C4 | D2 E2 F2 G2 | A4 z2 G,2 | A,2 B,2 C3 D | E2 G,2 A,2 B,2 | C2 D2 E4- | %10
w: ||||Ky-|ri- e e- lei-|son. Ky-|ri- e e- *|lei- son. Ky- ri-|e\_e- lei- son.|
 E8 || C4 D3 E | FG A4 G2- | GE G4 F2 | G4 F3 G | A4 z2 C2 | D3 EFG A2- | A2 G2 F4 | E2 G3 A B2 | %19
w: |Chris- te _|_ _ _ e-|* * lei- *|son, lei- *|son, Chris-|te- * * * *|* e- lei-|son, Chris- * te|
 c2 G2 A2 G2- | G2 C3 D E2 | F2 G2 A2 GF | E8 || z4 z2 C2 | D EFG A2 G2 | E3 F G4 | z2 A2 A2 A2 | %27
w: e- lei- * son,|_ Chris- te- *|* * e- lei- *|son.|Ky-|ri- e _ _ _ e-|lei- * son,|Ky- ri- e|
 F2 G2 F4 | E8 | D2 E2 C2 F2- | F2 E2 D4 | C2 G3 FGE | A6 G2 | F2 E2 z2 G,2 | A,B,CD E4- | E8 || %36
w: e- * *|lei-|* * son, Ky-|* ri- e|e- * * * *||lei- son, Ky-|ri- e e- lei- son.|_|
 z8 | z8 | z4 z2 C2 | D2 E2 F2 G2 | A2 GF E4- | E4 z2 E2 | E2 F2 G4- | G4 z2 E2 | E2 E2 F2 G2- | %45
w: ||bo-|nae vo- lun- ta-|* * * tis,|_ lau-|da- mus te,|_ be-|ne- di- ci- mus|
 GFED C4 | z2 E2 E2 E2 | F2 G3 FGE | A4 z2 A2- | AA A2 G2 E2 | G4 F2 D2 | G8 | z2 E2 AAAA | %53
w: _ _ _ _ te,|glo- ri- fi-|ca- mus _ _ _|te, gra-|* ti- as a- gi-|mus ti- *|bi,|do- mi- ne De- us|
 GF E2 D4 | z8 | z4 z2 A2 | B2 G2 A3 G | F2 F2 E4- | E4 z2 E2 | F2 A4 G2 | F4 E4- | E4 G3 F | %62
w: rex- cae- les- tis,||De-|us pa- ter om-|ni- po tens,|_ Je-|su Chris- *|* te,|_ do- mi-|
 E2 A4 G2 | F4 E2 A2 | G2 F2 A4 | D2 A4 G2 | F4 E3 F | GA B2 A2 A2- | A2 G2 A2 A2 | A2 G2 F4 | %70
w: ne De- us|ag- nus De-|i fi- li-|us pa- *|tris, ag- *|* * * nus De-|* i fi- li-|us pa- *|
 E8 || C4 D4 | E2 F2 G2 G2 | A4 A2 A2 | A2 A2 A3 G | F4 E4- | E4 z4 | z4 z2 D2 | D2 D2 A4- | %79
w: tris.|Qui to-|llis pe- cca- ta|mun- di mi-|se- re- re _|no- bis,|_|qui|to- llis pe-|
 A2 G2 A2 c2 | BA A4 G2 | A4 A4- | A4 A4 | G8 | z2 C2 D2 E2 | FG A4 GF | G2 A3 GFE | F4 E4 | %88
w: * cca- ta mun-||di, sus-|* ci-|pe,|qui se- des|ad _ dex- te- *|ram pa- * * *|* tris,|
 z2 G,2 A,2 C2- | C2 A,2 C3 D | E2 D2 F2 ED | EC c3 B A2- | A2 G2 F2 E2 | D4 C4 | z4 z2 G2- | %95
w: quo- ni- am|_ tu so- lus|sanc- * * * *|* tus, tu _ so-|* lus al- ti-|ssi- mus,|tu|
 G2 A2 G2 F2 | E2 DC G4 | z4 A4- | A2 A2 G4 | E4 z2 C2 | D2 E2 F2 G2 | A2 A2 A2 A2 | GF ED C4 | %103
w: _ so- lus al-|ti- ssi- * mus,|Je-|* su Chris-|te, cum|sanc- to spi- ri-|tu in glo- ri-|a _ De- * i|
 D2 E2 z2 A2 | A2 A2 GF ED | C2 G,2 A,2 B,2 | C2 D2 E4- | E8 || z8 | z8 | C4 C2 D2 | E2 F2 G4 | %112
w: pa- tris, in|glo- ri- a _ De- *|is pa- tris, A-|* * men.|_|||Pa- trem om-|ni- po- ten-|
 A8- | A8 | z2 C2 D4 | F3 E C2 E2 | DEFG A2 G2 | F2 A3 G E2 | G3 FED E2- | ED B,2 C2 A,2 | %120
w: tem,|_|vi- si-|bi- li- um om-|ni- * * * * *|um, et _ in-|vi- si- * * *|* * * bi- *|
 B,4 A,4 | z2 A4 G2- | G2 FE F3 G | AB c4 B2 | c2 A4 G2 | F4 E4 | z2 E2 G2 E2 | F3 G A2 F2 | %128
w: li- um,|et in|_ u- * num do-|* mi- num Je-|* sum _|Chris- tum,|fi- li- um|De- i un- i-|
 A3 G/F/ E2 A2 | G2 E2 F4 | z4 z2 A2- | A2 G2 F2 D2 | E8 | F4 E2 A2- | A2 G2 F4 | E8 | %136
w: ge- * * * *|* ni- tum,|an-|* te om- ni-|a|sae- cu- *||la,|
 z2 G2 G2 G2 | E4 F4 | G4 z4 | z8 | z2 G2 G2 G2 | FE DCB,A, B,2 | A,2 A2 A2 A2 | GF ED E2 F2 | %144
w: lu- men de|lu- mi-|ne,||ge- ni- tum|non _ fac- * * * *|tum, con- sub- stan-|ti- * a- * lem _|
 G6 F2 | E4 z4 | E2 F2 G2 G2 | A2 DEFG A2- | A2 G2 A4 | z8 | z4 z2 E2 | E2 F2 G2 DE | FD G4 F2 | %153
w: pa- *|tri,|per quem om- ni-|a fac- * * * *|* ta sunt,||et|prop- ter nos- tram _|_ _ sa- lu-|
 G2 C2 D2 E2 | F2 G2 A2 GF | E2 E2 G4 | C2 D2 A,3 B, | C8 || E8 | F4 G4 | G4 A4 | A8 | z4 C4 | %163
w: tem des- cen- dit|de cae- * * *|lis, des- scen-|dit de cae- *|lis.|Et|in- car-|na- tus|est|de|
 D4 E4- | E4 F4 | G8 | A4 A4- | A4 G4 | F4 D4 | F8 | E2 A4 G2- | G2 FE F4 | G4 z4 | G8 | F4 A4- | %175
w: spi- ri-|* tu|sanc-|to, ex|_ Ma-|ri- a|vir-|gi- ne, vir-|* * * gi-|ne,|et|ho- mo|
 A2 GF G4 | A8 | G8 | E12 || z8 | C3 D E2 F2 | G2 A2 D2 A2- | A2 GF G3 F | GE A4 G2 | A8 | %185
w: _ _ _ _|fac-|tus|est.||Cru- ci- fix- us|e- ti- am pro|_ _ _ _ _|* * * no-|bis,|
 z2 F2 G2 A2 | D2 A4 G2 | A3 G F2 ED | E4 z4 | E4 F4 | E2 A2 B2 c2- | cB AG F4 | E4 z4 | z8 | z8 | %195
w: sub Pon- ti-|o Pi- *|la- * * * *|to,|pa- *|ssus et se- pul-|* * tus _ _|est,|||
 z8 | z2 D4 C2 | FG AB c2 B2 | A8- | A4 z2 E2 | E2 D2 G2 A2 | c2 B3 A A2 | G2 A4 ^G2 | A8 || z8 | %205
w: |et as-|cen- * dit _ in cae-|lum,|_ se-|det ad dex- te-|ram pa- * *||tris.||
 z8 | z8 | z4 A4 | G2 A2 D2 A2 | A2 A2 G2 F2 | G2 A4 G2 | F4 E4 | G3 F E2 A2 | G2 F2 A3 G | %214
w: ||Ju-|di- ca- re vi-|vos et mor- *|tu- os, _|_ _|cu- ius _ reg-|ni non e- *|
 E2 G2 FGAF | G2 A4 G2 | A8 | E3 F G2 G2 | G2 G2 A4 | G6 F2 | E2 A2 G2 E2 | F2 G2 A2 GF | %222
w: it fi- * * * *||nis,|et in- spi- ri-|tum sanc- tum|do- mi-|num et vi- vi-|fi- can- * * *|
 E2 E2 F2 G2 | C4 z2 E2 | E2 E2 F2 G2- | GFED C2 D2 | E4 z2 D2 | D2 E2 F3 D | F2 G2 AGFE | F4 E4- | %230
w: tem, qui ex pa-|tre fi-|li- o- que pro-|* * * * * ce-|dit, qui|cum pa- tre _|et fi- li- * * *|* o,|
 E4 z2 F2 | F2 G2 A2 A,2- | A,B, C2 A,2 A2- | A2 A2 A2 A2 | E8 | F4 E4 | D2 CB, C4 | z2 D2 F2 G2 | %238
w: _ et|con- glo- ri- fi-|* * ca- tur, qui|_ lo- cu- tus|est|per pro-|phe- * * tas,|et u- nam|
 A6 F2 | G2 A4 GF | E4 z4 | z4 z2 A2 | AAAA GFED | C4 z2 F2 | E2 D2 E2 DE | FG A2 E2 A2- | %246
w: sanc- tam|ca- tho- * li-|cam|et|a- po- sto- li- cam e- ccle- si-|am, con-|fi- te- or u- *|num _ bap- tis- ma,|
 A2 A2 G2 E2 | A8 | z2 A,2 C2 A,2 | C3 D E2 C2 | DE FG A4- | A4 z2 A2 | A2 A2 G2 A2- | %253
w: _ bap- tis- *|ma,|in re- mi-|ssi- * o- nem|pe- cca- to- * rum,|_ in|re- mi- ssi- o-|
 A2 G2 A2 G2- | G2 FE F4 | G4 z2 C2 | D2 E2 F2 G2 | A2 F2 G2 G2- | GG G2 E2 D2 | E8 | z4 G4- | %261
w: * nem pe- cca-|* * * to-|rum. Et|ex- pec- to re-|su- rrec- ti- o-|* nem mor- tu- o-|rum.|Et|
 G4 G4 | E4 E4 | C4 C4 | E4 D4 | F8 | E8 | E8 || z8 | z8 | z8 | z2 A4 GF | G2 A3 G E2 | F2 G4 F2- | %274
w: _ vi-|tam ven-|tu- ri|sae- cu-|li|A-|men.||||Sanc- tus _|Sanc- * * *||
 FE E2 D3 E | FGAF G4- | G2 F2 E4 | z2 C2 DE FG | AF G2 F4 | E4 z4 | C2 DE FG A2 | G2 E2 A4- | %282
w: ||* * tus,|do- mi- nus De- *|* us sa- ba-|oth,|do- mi- nus De- us sa-|ba- oth, do-|
 A2 G2 F2 EF | GA B2 A2 A2- | A2 G2 A4 | z2 A2 A2 A2 | GFED E4 | z8 | z2 A2 A2 A2 | GFED E4 | %290
w: * mi- nus De- *|* * * us sa-|* ba- oth,|ple- ni sunt|cae- * * * li,||ple- ni sunt|cae- * * * li|
 F2 A4 G2 | A2 E2 E2 E2 | G4 GFED | E4 G4- | G2 F2 E4- | E8 || z8 | z8 | C8 | D8 | E8 | F8 | G8 | %303
w: et te- rra,|_ glo- ri- a|tu- * * * *|a, tu-|* * a.|_|||Ho-|san-|na\_in|ex-|cel-|
 A8 | z8 | C8 | D8 | E8 | F8 | G8 | A8- | A8- | A8 || z8 | z8 | z8 | z8 | C4 C2 D2 | E2 F2 G4 | %319
w: sis,||Ho-|san-|na\_in|ex-|cel-|sis.|_||||||Be- ne- dic-|tus qui ve-|
 A8 | z2 C2 C2 D2 | E3 F G4 | A4 z2 A2 | A2 A2 G2 A2- | A2 G2 F4 | E8 | z2 E2 E2 D2 | E2 F4 E2 | %328
w: nit,|be- ne- dic-|tus qui ve-|nit in|no- mi- ne do-|* * mi-|ni,|in no- mi-|ne do- mi-|
 D2 CDEF G2- | G2 FE F2 E2 | F2 A2 A2 G2 | A2 F2 G4 | F2 A3 G G2 | A8 || z8 | z4 C4- | %336
w: ||ni, in no- mi-|ne do- *|* * * mi-|ni.||Ag-|
 C2 D2 E2 F2 | G4 A4 | z8 | z2 G2 G2 G2 | F2 A2 G2 F2- | F2 E2 F2 G2 | F2 D2 C2 A,2 | %343
w: * nus de- *|i _||qui to- llis|pe- cca- ta mun-|* di, _ _|_ _ _ _|
 B,2 G2 G2 G2 | C2 DEFGAF | G2 F2 A4 | z2 A2 A2 A2 | D2 A4 G2 | A2 c4 B2 | c2 A2 G2 F2- | %350
w: * mi- se- re-|re _ _ _ _ _ _|_ no- bis,|mi- se- re-|re no- *|||
 F2 E2 D4 | z2 A2 G2 F2- | FE C2 D2 E2 | F4 C2 DE | FG A4 G2 | F2 E2 z2 G,2 | A,B,CD E4 | E8 |] %358
w: * * bis,|mi- se- re-|* re no- * *|bis, mi- se- *|re- * re no-|* bis, mi-|se- * re- re no-|bis.|
V:3
 G4 A2 B2 | c2 d2 e4 | z2 e4 f2 | e2 g2 f2 e2 | d2 e3 d c2- | c2 B2 c4 | z2 c2 c2 c2 | %7
w: Ky- ri- e|e- lei- son.|Ky- ri-|e e- * *|* lei- * *|* * son.|Ky- ri- e|
 d2 f2 e2 g2 | g2 g2 c2 d2 | A2 B2 A4- | A8 || z4 G4 | A3 Bcd e2 | e4 d4 | e4 z2 A2- | %15
w: e- lei- son. Ky-|ri- e e- *|lei- * son.||Chris-|te _ _ _ _|e- lei-|son, Chris-|
 A Bcd e2 f2 | g4 z4 | z2 G2 A3 B | cd e4 d2- | dc c4 B2 | c2 g2 e2 g2 | f2 e2 d4- | d2 cB c4 || %23
w: * te _ _ e- lei-|son,|Chris- te _|_ _ _ e-|* * * lei-|son, Chris- te e-|* * lei-|* * * son.|
 z8 | z4 z2 G2 | A Bcd e2 c2 | f4 e4 | d2 cB A4 | z2 A2 G2 A2 | B4 A4 | z4 z2 G2 | AB cd e2 c2 | %32
w: |Ky-|ri- e _ _ _ e-|lei- *|* * * son,|Ky- ri- e\_e-|lei- son.|Ki-|ri- e e- * * *|
 f4 e2 G2 | AB cd e2 d2- | dc A2 B4 | A8 || G3 A B2 c2 | d2 e2 d2 c2 | f4 e2 e2 | f2 g2 f2 e2 | %40
w: lei- son, Ky-|ri- e e- * * *|* * lei- *|son.|Et in ter- ra|pax ho- mi- ni-|bus bo- nae|vo- lun- ta- *|
 d6 cB | c2 e2 f2 g2 | c4 z2 e2 | e2 e2 f2 g2- | gfed c2 d2 | z2 e4 e2 | f2 g3 fed | c2 d2 z2 e2 | %48
w: |tis, lau- da- mus|te, be-|ne- di- ci- mus|_ _ _ _ _ te,|a- do-|ra- mus _ _ _|_ te, glo-|
 f2 f2 e2 e2 | A2 c3 c c2 | B2 G2 A2 B2 | c2 e2 eedc | BA Bc d4 | z4 z2 d2 | e2 c2 d2 f2 | %55
w: ri- fi- ca- mus|te, gra- ti- as|a- gi- mus ti-|bi, prop- ter ma- gnam glo-|ri- am tu- * am,|De-|us pa- ter om-|
 e2 c2 d2 f2 | g2 e2 f2 c2 | d2 d2 A2 c2 | cccc BABc | d2 c3 c c2 | A4 z4 | z2 c2 c2 G2 | %62
w: ni po- tens, De-|us pa- ter om-|ni- po- tens, do-|mi- ne fi- li u- ni- ge- ni-|te, Je- su Chris-|te|do- mi- ne|
 A3 B cd e2 | A2 d4 cB | c2 d2 f4- | f2 c2 f2 e2 | d4 z2 c2 | c2 G2 ABcd | e4 z2 f2 | f2 e2 d4- | %70
w: De- * * * *|us, De- * *|* us, ag-|* nus De- *|i fi-|li- us pa- * * *|tris, fi-|li- us pa-|
 d2 ^cB c4 || e4 f2 g2- | g2 c2 e2 e2 | f4 e2 c2 | d2 c2 f3 e | dc d4 c2 | B2 c3 B d2- | d2 c2 d4 | %78
w: * * * tris.|Qui to- llis|_ pec- ca- ta|mun- di mi-|se- re re no-|||* * bis,|
 z2 A2 A2 A2 | e4 d2 e2 | dcBA B4 | A4 d4- | d4 c4 | c2 e2 e2 e2 | d2 c2 c2 B2 | c4 z4 | %86
w: qui to- llis|pe- cca- ta|mun- * * * *|di, sus-|* ci-|pe de- pre- ca-|ti- o- nem nos-|tram,|
 z2 d2 d2 d2 | A2 d4 c2 | d2 e2 f2 ed | c3 B c4 | z2 G2 A2 c2- | c2 A2 c2 d2 | e2 e2 z2 g2 | %93
w: mi- se- re-|re no- bis,|mi- se- re- re _|no- * bis,|quo- ni- am|_ tu so- lus|sanc- tus, tu|
 a2 g4 f2 | e2 d2 c2 d2- | dA c3 B B2 | c8 | z4 A4- | A2 A2 B2 d2- | d2 cB c2 e2 | f2 c2 d2 e2 | %101
w: so- lus do-|mi- nus to so-|* lus do- * mi-|nus,|Je-|su Chris- * *|* * * te, cum|sanc- to spi- ri-|
 d2 f2 f2 f2 | c4 z2 e2 | g3 f e2 d2- | d2 cB c2 A2- | A2 B2 c2 d2 | A4 B4 | A8 || z8 | e4 f4 | %110
w: tu in glo- ri-|a De-|i _ _ pa-|* * * * tris,|_ A- * *||men.||Pa- *|
 e6 d2 | c2 d2 B4 | A2 e2 e2 e2 | f2 f2 e2 A2- | AB c4 B2 | c8 | z4 z2 c2 | d2 f3 e c2 | e2 d2 c4 | %119
w: trem om-|ni- po- ten-|tem fac- to- rem|cae- li et ter-||rae,|et|in- vi- si- bi-|* li- um,|
 z8 | z2 e4 d2- | d2 cB c2 c2 | c2 d2 d2 f2- | f2 e2 d4 | c8 | z2 A2 c2 A2 | c3 d e2 c2 | %127
w: |et in|_ u- * * num|do- mi- num Je-|* su Chris-|tum,|fi- li- um|De- i u- ni-|
 d2 d2 A4 | z2 A4 A2 | B2 c2 d3 c | d2 e2 f3 f | f2 c2 d2 B2 | A4 z2 B2 | c2 d2 B2 A2- | AB c2 A4 | %135
w: ge- ni- tum,|et ex|pa- tre na- tum|an- te om- ni-|a sae- * cu-|la, om-|ni- a sae- *|* * cu- la,|
 z2 c2 c2 c2 | d2 e4 c2 | c2 c2 dc BA | G2 e2 e2 e2 | d2 g4 f2 | ed d4 c2 | d2 d2 d2 d2 | %142
w: De- um de|De- o, lu-|men de lu- * mi- *|ne, De- um ve-|rum de De-|o _ ve- *|ro, ge- ni- tum|
 e2 f2 d4 | z2 c2 c2 c2 | d2 e4 d2 | c2 BA B2 e2- | e2 d2 c2 B2 | A2 d3 c A2 | B2 e2 e2 f2 | %149
w: non fac- tum,|con- sub- stan-|ti- a- lem|pa- * * tri per|_ quem om- ni-|a fac- * ta|sunt, qui prop- ter|
 g2 e2 fedc | d2 d2 c4 | z4 z2 G2 | A2 B2 c2 d2 | e4 z2 g2 | f2 e2 d2 d2 | c4 z2 G2 | A2 B2 c2 d2 | %157
w: nos ho- * * * *|* mi- nes|des-|scen- dit de cae-|lis, des-|cen- dit de cae-|lis, des-|cen- dit de Cae-|
 e8 || z4 c4- | c4 d4 | e4 f2 d2- | d2 cB c4 | z4 e4 | g4 g4 | c2 e2 d2 A2 | B2 c3 B B2 | c8- | %167
w: lis.|Et|_ in-|car- na- *|* tus _ est|de|spi- ri-|tu sanc- to, spi-|ri- tu _ sanc-|to,|
 c8 | z4 G4 | A6 B2 | c8 | d4 d4 | e4 z4 | c8 | A4 d4 | c2 BA B4 | A2 f4 f2 | e2 dc d4- | %178
w: _|ex|Ma- ri-|a|vir- gi-|ne,|et|ho- mo|fac- * * tus|est, et ho-|mo fac- * *|
 d2 cB c8 || z8 | z8 | z4 z2 A2 | A2 c4 G2 | c2 d2 e2 e2 | f3 e d2 c2 | d4 z4 | z2 c2 d2 e2 | %187
w: * * tus est.|||Cru-|ci- fix- us|e- ti- am pro|no- * * *|bis|sub Pon- ti-|
 A2 d4 cB | cd e4 d2- | d2 c2 d4 | A4 z2 A2 | A2 A2 d3 d | c2 A2 B2 c2 | d2 B2 c2 d2 | %194
w: o Pi- la- *|||to et|re- su- rre- xit|ter- ti- a di-|e se- cun- dum|
 e2 f3 e e2- | e2 d4 ^c2 | d4 z4 | z2 A4 G2 | c2 d2- d2 e2 | f4 e4 | z4 z2 A2- | A2 G2 c2 d2 | %202
w: scrip- tu- * *||ras|et as-|cen- dit _ in|cae- lum,|se-|* det ad dex-|
 e2 c2 B4 | A8 || z4 e4 | d2 e2 A2 e2 | e2 e2 d2 B2 | c4 d4 | e2 A2 B2 c2 | d2 A2 c2 d2 | %210
w: te- ram pa-|tris.|Et|i- te- rum ven-|tu- rus _ est,|cum glo-|ri- a ju- di-|ca- re vi- vos|
 e2 f4 e2 | d4 z2 c2- | c2 G2 ABcd | e2 f4 ed | c2 e2 d2 c2- | c2 BA e4 | f8 | z2 c2 d2 e2 | %218
w: et mor- tu-|os cu-|* ius reg- * * *|ni non e- *|rit fi- * *||nis,|et in spi-|
 d2 e2 f2 ed | ef e3 d d2- | d2 cB c2 g2 | f2 e2 d2 d2 | c4 z2 e2 | e2 f2 g4- | g4 z2 e2 | %225
w: ri- tum sanc- * *|* tum, do- * *|* mi- * num et|vi- vi- fi- can-|tem qui|ex pa- tre|_ fi-|
 e2 e2 f2 g2- | gfed c2 BA | B2 c2 d4 | z8 | z4 z2 A2 | A2 B2 c2 d2- | dc B2 A2 c2 | d2 e2 f2 f2 | %233
w: li- o- que pro-|* * * * ce- * *|* * dit||si-|mul a- do- ra-|* * * tur et|con- glo- ri- fi-|
 e4 A2 c2- | c2 c2 c2 c2 | d2 c4 B2- | BA A4 G2 | A4 z4 | z2 A2 c2 d2 | e2 f3 e d2- | d2 cB c2 d2 | %241
w: ca- tur qui|_ lo- cu- tus|est per pro-|* * phe- *|tas,|et u- nam|sanc- tam ca- tho-|* li- * cam, sanc-|
 e2 f3 edc | d4 e2 g2 | gggg fedc | B8 | z2 A2 c2 A2 | c3 d e2 c2 | f6 ed | e8 | z2 e2 g2 e2 | %250
w: tam ca- tho- * *|li- cam et|a- po- sto- li- cam ecc- le- si-|am,|con- fi- te-|or u- num bap-|tis- * *|ma|in re- mi-|
 f3 e c2 d2 | z2 A2 c2 A2 | c3 d e2 f2- | f2 e2 d4 | c8 | d2 d2 e2 f2 | g2 G2 A2 c2- | %257
w: ssi- * o- nem|in re- mi-|ssi- o- nem pe-|* cca- to-|rum.|Et ex- pec- to|re- su- rrec- ti-|
 c2 d2 e2 e2- | e2 d2 c2 A2 | B8 | z4 e4- | e4 d4 | c4 B4 | A4 G4 | c6 B2 | c4 d4 | B8 | A8 || %268
w: * o- * nem|_ mor- tu- o-|rum.|Et|_ vi-|tam ven-|tu- ri|sae- cu-|li A-||men.|
 G6 A2 | B2 c3 d e2- | e2 dc d2 c2 | f4 e4- | e2 A2 d2 cB | c2 d2 B2 c2 | z2 G2 A2 B2 | %275
w: Sanc- *|* * tus, Sanc-||||* * * tus,|do- mi- nus|
 c2 A2 B2 c2 | A4 z2 a2 | a2 g2 f4- | f2 c2 d2 B2 | c2 e2 d2 c2- | c2 B2 c4- | c4 z4 | %282
w: De- us sa- ba-|oth, do-|mi- nus De-|* us sa- *|* ba- * *|* * oth,|_|
 z2 G2 AB cd | e3 d c2 A2 | B2 e2 d2 c2 | f8 | e2 c2 c2 c2 | d2 e3 dcB | c4 d4 | e2 c2 c2 c2 | %290
w: do- mi- * nus _|De- * * us,|sa- * * *|ba-|oth, ple- ni sunt|cae- li _ _ _|et ter-|ra, glo- ri- a|
 d4 e4 | A2 c2 c2 c2 | d2 e3 dcB | c4 d2 e2- | e2 dc B4 | A8 || z2 e2 e2 e2 | fe dc B2 A2- | %298
w: tu- *|a, ple- ni sunt|cae- li _ _ _|glo- ri- a|_ _ _ tu-|a.|Ho- san- na|in _ ex- * cel- *|
 A2 GF G4 | A2 F2 G2 B2 | A4 z4 | z2 d2 d2 c2 | d2 e2 c2 d2 | e2 d2 d2 c2 | e2 f2 d4 | %305
w: * * * sis,|in ex- cel- *|sis,|Ho- san- na|in ex- cel- *|sis, Ho- san- na|in ex- cel-|
 e2 a2 a2 g2 | fe dc BA B2 | A2 c2 c2 B2 | c2 d2 c3 d | e2 c2 c2 B2 | A4 d2 e2 | f8 | e8 || %313
w: sis, Ho- san- na|in _ ex- * * * cel-|sis, Ho- san- na|in ex- cel- *|sis, Ho- san- na|in ex- cel-||sis.|
 G4 G2 A2 | B2 c2 d4 | e6 dc | d2 e2 f2 g2- | gfed e2 d2 | c2 d2 B4 | A8 | z8 | z2 e2 e2 e2 | %322
w: Be- ne- dic-|tus qui ve-|||||nit,||in no- mi-|
 A2 d4 cB | c2 d2 e2 f2- | f2 c2 d4 | z2 A2 A2 G2 | A2 c4 B2 | A4 z4 | z2 A2 A2 G2 | A2 d2 d2 c2 | %330
w: ne do- * *||* mi- ni,|in no- mi-|ne do- mi-|ni,|in no- mi-|ne _ do- mi-|
 d2 f4 e2 | d4 c4 | d4 B4 | A8 || z8 | z8 | z8 | z2 e4 c2 | d2 e3 d cB | A2 d4 c2 | d4 z4 | %341
w: ni, in no-|mi- ne|do- mi-|ni.||||Ag- nus|_ _ _ _ _|* De- *|i,|
 z4 z2 G2 | A2 B2 c2 d2 | e2 c2 B4 | A8 | z2 d2 d2 d2 | c2 d3 e f2- | fd f2 e2 d2- | d2 c2 d4 | %349
w: Ag-|nus De- * *||di,|qui to- llis|pe- cca- * *|* ta mun- * *|* * di,|
 f4 e2 A2 | A4 z2 G2 | AB cd e2 d2 | c2 c3 B B2 | c4 z2 G2 | ABcd e2 G2 | AB cd e2 d2- | dc A2 B4 | %357
w: mun- * *|di, mi-|se- * re _ re _|_ no- * *|bis, mi-|se- re- re no- bis, mi-|se- * re- * re no-||
 A8 |] %358
w: bis.|
V:4
 z8 | z8 | z8 | C,4 D,2 E,2 | F,2 G,2 A,4 | G,4 F,2 E,2 | F,6 E,2 | D,4 C,2 C2- | C2 B,2 A,2 G,2 | %9
w: |||Ky- ri- e|e- lei- son.|Ky- ri- e|e- *|lei- son. Ky-|* ri- e e-|
 F,4 E,4 | A,8 || z8 | z8 | z8 | C,4 D,3 E, | F,G, A,4 A,2 | G,4 D,2 F,2- | F,2 E,2 F,2 D,2 | %18
w: lei- *|son.||||Chris- te _|_ _ _ e-|lei- son, Chris-|* ste e- lei-|
 C,2 C4 G,2 | A,2 E,2 F,2 G,2 | C,4 z2 C,2 | D,2 E,2 F,2 G,2 | A,8 || z8 | z8 | z4 z2 C,2 | %26
w: son, Chris- te|_ _ e- lei-|son, Chris-|te e- lei- *|son.|||Ky-|
 D,E,F,G, A,4 | z2 C,2 D,E,F,G, | A,4 z4 | z2 E,2 F,G,A,B, | C2 C,2 G,4 | z4 z2 C,2 | %32
w: ri- e e- lei- son,|Ky- ri- e e- lei-|son,|Ky- ri- e e- lei-|* * son,|Ky-|
 D,E,F,G, A,2 E,2 | F,2 A,2 E,2 G,2 | F,4 E,4 | A,8 || z8 | z8 | z8 | z2 C,2 D,2 E,2 | %40
w: ri- e e- lei- son, Ky-|ri- e e- *|* lei-|son.||||bo- nae vo-|
 F,2 G,2 A,4- | A,4 z2 C2 | A,2 F,2 C4- | C4 z2 C2 | C2 C2 A,2 G,2 | C4 z4 | z2 C4 C2 | %47
w: lun- ta- tis,|_ lau-|da- mus te,|_ be-|ne- di- ci- mus|te,|a- do-|
 A,2 G,2 C2 C,2 | D,E,F,G, A,4- | A,4 z4 | z8 | z2 C2 CCB,A, | G,F, E,2 D,4 | z2 A,2 B,2 G,2- | %54
w: ra- mus te, glo-|ri- fi- ca- mus te,|_||prop- ter ma- gnam glo-|ri- am tu- am,|De- us pa-|
 G,2 A,2 F,G,A,F, | G,2 A,2 D,4 | z8 | z4 z2 A,2 | A,A,A,A, G,F,G,A, | D,2 F,4 C,2 | %60
w: * ter om- * * *|ni- po- tens,||do-|mi- ne fi- li u ni- ge- ni-|te, Je- su-|
 D,E,F,G, A,4- | A,4 z4 | z2 F,2 F,2 C,2 | D,E,F,G, A,4 | z8 | z2 F,4 C,2 | D,E,F,G, A,4 | z8 | %68
w: Chris- * * * te,|_|do- mi- ne|De- * * * us,||ag- nus|De- * * * i,||
 z4 z2 F,2 | F,2 C,2 D,E,F,G, | A,8 || A,4 D,2 G,2- | G,2 F,2 E,2 E,2 | D,E,F,G, A,4 | z4 z2 D,2 | %75
w: fi-|li- us pa- * * *|tris.|Qui to- llis|_ pe- cca- ta|mun- * * * di,|qui|
 D,2 D,2 A,4 | G,2 A,3 G, F,2 | E,4 D,4- | D,4 z4 | z8 | z8 | z4 D,4- | D,4 F,4 | C,2 C2 C2 C2 | %84
w: to- llis pe-|cca- * * ta|mun- di,|_|||sus-|* ci-|pe de- pre- ca-|
 G,2 A,2 F,2 G,2 | F,4 z4 | z4 z2 D,2 | D,2 D,2 A,3 G, | F,2 E,2 D,2 C,2 | F,3 E, C,4 | z8 | z8 | %92
w: ti- o- nem nos-|tram,|mi-|se- re- re _|_ _ no- bis,|no- * bis,|||
 z2 C,2 D,2 E,2 | F,2 G,2 A,4 | z2 G,2 A,2 G,2- | G,2 F,2 E,2 D,2 | C,8 | z4 F,4- | F,2 F,2 G,4 | %99
w: tu so- lus|do- mi- nus,|tu so- lus|_ al- ti- ssi-|mus,|Je-|* su Chris-|
 A,8 | z8 | z8 | z2 A,2 A,2 A,2 | G,F, E,D, C,2 D,2- | D,E, F,2 C,2 C2- | C2 B,2 A,2 G,2 | %106
w: te,|||in glo- ri-|a _ De- * i pa-|* * * tris, A-||
 F,4 E,4 | A,8 || z8 | z8 | z8 | z8 | z2 A,2 A,2 A,2 | D,E,F,G, A,B, C2- | CB, A,2 G,4 | F,4 z4 | %116
w: |men.|||||fac- to- rem|cae- * * * li _ et|_ _ _ ter-|rae,|
 z8 | z8 | z2 G,2 A,2 C2- | CB, G,2 A,2 F,2 | E,3 D, C,2 D,2 | A,4 z4 | z8 | z8 | z2 F,4 C,2 | %125
w: ||et in- vi-|* si- bi- li- *||um,|||Je- sum|
 D,E,F,G, A,4- | A,4 z4 | z2 D,2 F,2 D,2 | F,3 G, A,2 F,2 | G,2 A,2 D,4 | z8 | z8 | z2 A,4 G,2 | %133
w: Chris- * * * tum,|_|fi- li- um|De- i u- ni-|ge- ni- tum,|||an- te|
 F,2 D,2 E,2 F,2- | F,2 C,2 D,4 | z2 A,2 A,2 A,2 | G,F,E,D, C,4- | C,4 z4 | z2 C2 C2 C2 | %139
w: om- ni- a sae-|* cu- la,|De- um de|De- * * * o,|_|De- um ve-|
 B,A,G,F, E,2 A,2 | G,F, E,D, E,4 | D,4 z4 | z8 | z2 A,2 A,2 A,2 | G,F, E,D, C,2 D,2 | E,8 | z8 | %147
w: rum _ _ _ _ de|De- * o _ ve-|ro,||con- sub- stan-|ti- * a- * lem pa-|tri,||
 z8 | z2 E,2 A,2 A,2 | G,2 A,3 G,F,E, | F,2 G,2 A,4- | A,4 z4 | z8 | z4 z2 C,2 | D,2 E,2 F,2 G,2 | %155
w: |qui prop- ter|nos ho- * * *|* mi- nes,|_||des-|cen- dit de cae-|
 A,2 C4 B,2 | A,2 G,2 F,4 | C,8 || C8 | A,4 G,3 F, | E,4 D,4 | A,8 | z4 A,4 | G,4 E,4 | A,4 D,4 | %165
w: lis, des- cen-|dit de cae-|lis.|Et|in- car- *|na- tus|est|de|spi- *|ri- tu|
 G,8 | F,4 F,4- | F,4 E,4 | F,4 G,4 | F,4 D,4 | A,3 G, F,2 E,2 | D,8 | C,4 z4 | C,8 | D,8 | E,8 | %176
w: sanc-|to, ex|_ Ma-|ri- a|vir- gi-|||ne,|et|ho-|mo|
 F,8 | G,8 | A,12 || z8 | z8 | z8 | z8 | z8 | z8 | z8 | z8 | z4 z2 A,2- | A,2 G,2 A,2 F,2 | %189
w: fac-|tus|est.|||||||||Pa-|* ssus et se-|
 G,2 A,2 D,4 | z8 | z2 D,2 D,2 D,2 | A,3 A, G,2 E,2 | F,2 G,2 A,2 F,2 | G,2 A,3 G, E,2 | F,4 E,4 | %196
w: pul- tus est||et re- su-|rre- xit ter- ti-|a di- e se-|cun- dum _ scrip-|* tu-|
 D,4 z4 | z8 | z2 D,2 D,2 C,2 | F,3 G,A,B, C2 | A,2 B,2 C4 | F,2 G,2 A,2 F,2 | E,8 | A,8 || %204
w: ras,||se- det ad|dex- te- * * ram|pa- * tris,|ad dex- te- ram|pa-|tris.|
 A,4 G,2 A,2 | D,2 A,2 A,2 A,2 | G,2 E,2 F,2 G,2 | A,G,F,E, F,4 | z8 | z8 | z2 F,4 C,2 | %211
w: Et i- te-|rum ven- tu- rus|_ est, cum glo-|ri- * * * a|||cu- ius|
 D,E,F,G, A,4 | z4 z2 F,2 | C,2 D,E,F,G, A,2- | A,G, E,2 F,4 | E,8 | D,8 | z2 A,2 B,2 C2 | %218
w: reg- * * * ni,|non|e- rit _ _ _ fi-|||nis,|et in spi-|
 G,2 C2 F,G,A,B, | C2 C,2 D,E,F,G, | A,4 z2 C,2 | D,2 E,2 F,2 G,2 | A,4 z2 C2 | A,2 F,2 C4- | %224
w: ri- tum sanc- * * *|tum do- mi- * * *|num, et|vi- vi- fi- can-|tem, qui|ex pa- tre,|
 C4 z2 C2 | C2 C2 A,2 G,2 | C3 B, A,2 G,F, | G,2 E,2 D,4 | z4 z2 A,2 | A,2 B,2 C3 B, | %230
w: _ fi-|li- o- que pro-|ce- * * * *|* * dit|si-|mul a- do- ra-|
 A,2 G,2 A,2 D,2 | D,2 E,2 F,3 E, | D,2 C,2 D,E,F,G, | A,4 z2 A,2- | A,2 A,2 A,2 A,2 | %235
w: * * tur, et|con- glo- ri- *|fi- ca- * * * *|tur qui|_ lo- cu- tus|
 D,2 A,4 G,2- | G,E, F,2 E,4 | D,4 z4 | z8 | z2 D,2 F,2 G,2 | A,4 A,2 F,2 | G,2 A,3 G,F,E, | %242
w: est per pro-|* * phe- *|tas,||et u- nam|sanc- tam ca-|tho- li- * * *|
 F,2 F,2 E,4 | z8 | E,2 G,2 E,2 G,2 | F,3 G, A,2 F,2 | A,3 B, C2 C,2 | D,E,F,G, A,4- | A,8- | %249
w: * * cam,||con- fi- te- or|u- * num bap-|tis- * ma, u-|num _ bap- tis- ma,|_|
 A,4 z4 | z2 D,2 F,2 D,2 | F,3 G, A,2 F,2 | A,3 G,/F,/ E,2 D,2- | D,2 E,2 F,2 G,2 | A,8 | %255
w: |in re- mi-|ssi- * o- nem|pe- * * * *|* cca- to- *|rum.|
 G,2 G,2 C2 A,2 | G,2 E,2 D,2 C,2 | F,2 D,2 C,2 C2- | C2 G,2 A,2 F,2 | E,8 | z4 C4- | C4 G,4 | %262
w: Et ex- pec- to|re- su- rrec- ti-|o- * nem mor-|* tu- o- *|rum.|Et|_ vi-|
 A,4 E,4 | F,4 C,4- | C,4 G,4 | F,4 D,4 | E,8 | A,8 || z8 | z8 | z8 | z8 | z4 z2 A,2- | %273
w: tam ven-|tu- ri|_ sae-|cu- li|A-|men.|||||Sanc-|
 A,2 G,F, G,2 A,2- | A,G, E,2 F,2 G,2 | F,4 E,2 C,2 | D,E,F,G, A,4 | z8 | z8 | z2 C,2 D,E,F,G, | %280
w: * tus, _ Sanc- *|* * * * tus,|Sanc- * *|* * * * tus,|||do- mi- nus De- us|
 A,2 G,2 F,4 | z2 C,2 D,E,F,G, | A,2 E,2 F,2 A,2 | E,4 F,4 | E,4 z4 | z8 | z2 A,2 A,2 A,2 | %287
w: sa- ba- oth,|do- mi- nus De- us|sa- * * *|* ba-|oth,||ple- ni sunt|
 G,F,E,D, C,2 A,2- | A,G,F,E, F,4 | C,8 | z8 | z2 A,2 A,2 A,2 | G,F,E,D, C,2 A,2 | %293
w: cae- * * * li et|_ _ _ _ te-|rra,||glo- ri- a|tu- * * * a, glo-|
 A,2 A,2 G,F,E,D, | C,2 D,2 E,4 | A,8 || A,4 A,2 G,2 | F,2 G,4 F,2- | F,2 E,D, E,4 | D,4 z4 | %300
w: ri- a tu- * * *||a.|Ho- sa- na|in ex- cel-||sis,|
 z2 A,2 A,2 G,2 | F,2 D,E,F,G, A,2 | G,2 C2 C2 B,2 | A,2 D,E,F,G,A,B, | C2 D2 B,4 | %305
w: Ho- san- na|in ex- * * * cel-|sis, Ho- san- na|in ex- * * * * *|cel- * *|
 A,3 G, F,2 E,2 | D,4 z4 | z2 A,2 A,2 G,2 | F,2 D,2 F,4 | C,4 z4 | z2 D,2 D,2 C,2 | %311
w: |sis,|Ho- san- na|in ex- cel-|sis,|Ho- san- na|
 D,3 E, F,2 D,2 | A,8 || z8 | z8 | z8 | z8 | z8 | z8 | z8 | z8 | z8 | z8 | z8 | z8 | z8 | z8 | z8 | %328
w: in ex- cel- *|sis.||||||||||||||||
 z8 | z8 | z8 | z8 | z8 | z8 || z8 | z8 | z8 | z4 A,4 | F,2 G,2 A,3 G, | F,2 G,2 E,4 | D,4 z4 | %341
w: |||||||||Ag-|nus De- * *||i,|
 z2 C,2 D,2 E,2 | F,2 G,2 A,2 F,2 | E,8 | z2 D,2 D,2 D,2 | C,2 D,3 E,F,G, | A,2 D,2 z2 D2 | %347
w: qui to- llis|pe- cca- ta mun-|di,|qui to- llis|pe- cca- ta _ _|mun- di, mi-|
 D2 D2 C2 B,2 | A,4 G,4 | F,4 C,2 D,E, | F,G, A,2 F,2 G,2 | F,4 C,2 D,E, | F,G, A,2 G,4 | %353
w: se- re- re no-|bis, _|_ mi- se- *|re- * re no- *|bis, mi- se- re-|re no- bis, mi-|
 F,G, A,B, C2 B,2 | A,4 E,4 | F,2 A,2 E,2 G,2 | F,4 E,4 | A,8 |] %358
w: se- * re- * re- *|no- bis,|mi- se- re- re|no- *|bis.|

